X:1
T:Title
%%score { 1 | 2 }
L:1/8
Q:1/4=100
M:6/8
K:Eb
V:1 treble nm="Grand Piano"
V:2 bass 
V:1
 E>FG A2 G | [EG]2 [DF] .[DF]3 | [DB]3 [DF]>[EG][FA] | G6 | E>FG A2 G | [EG]2 [DF] .[DF]3 | %6
w: J.~H.~Fillmore * * * *||||||
 [DB]3 [DF][DG][DF] | E6 | c>BA e2 c | [Ac]2 [GB] .[GB]3 | [DFA]>[B,EG][B,DF] [DGB]2 [B,FA] | %11
w: |||||
 [B,FA]2 G .G3 | c>BA e2 c | [Ac]2 [GB] [GB]2 [Gc] | [Fd]3 [Ec]3 | [DB]6 | B3 G>FE | %17
w: ||||||
 [EG]2 [DF] .[DF]3 | [DB]3 [DF]>[EG][FA] | [FA]2 [EG] .[EG]3 | [Ge]3 [Ge][Ae][Be] | %21
w: ||||
 [ce]2 [Ac] [CFA]2 [CEF] | [DB]3 [B,FA]3 | [B,EG]6 | [Ge]3 [Ge][Ae][Be] | [ce]2 c A2 F | B3 D3 | %27
w: ||||||
 E6 |] %28
w: |
V:2
 [E,G,]>[E,A,E][E,B,E] [E,CE]2 [E,B,E] | [B,,B,]2 [B,,B,] .[B,,B,]3 | %2
 [B,,F,]3 [B,,B,]>[B,,B,][B,,B,] | [E,B,E]6 | [E,G,]>[E,A,E][E,B,E] [E,CE]2 [E,B,E] | %5
 [B,,B,]2 [B,,B,] .[B,,B,]3 | [B,,F,]3 [B,,A,][B,,B,][B,,A,] | [E,G,]6 | %8
 [A,E]>[A,B,E][A,CE] [A,CE]2 [A,EA] | [E,E]2 [E,E] .[E,E]3 | B,,>B,,B,, B,,2 B,, | %11
 E,2 [E,B,E] .[E,B,E]3 | [A,E]>[A,B,E][A,CE] [A,CE]2 [A,EA] | [E,E]2 [E,E] [E,E]2 [E,B,] | %14
 [F,B,]3 [F,=A,]3 | [B,,B,]6 | [E,G,E]3 [E,B,E]>[E,A,D][E,G,] | [B,,B,]2 [B,,B,] .[B,,B,]3 | %18
 [B,,F,]3 [B,,B,]>[B,,B,][B,,B,] | [E,B,]2 [E,B,] .[E,B,]3 | [E,B,]3 [E,B,][F,B,][G,B,] | %21
 A,2 A, A,2 =A, | B,3 B,,3 | E,6 | [E,B,]3 [E,B,][F,B,][G,B,] | %25
 A,2[K:treble] [A,A] [A,CF]2[K:bass] [=A,CE] | [B,D]3 [B,,A,B,]3 | [E,G,B,]6 |] %28

